COLOR/action 16/16/format-text-direction-vertical.svg

<svg height="16" viewBox="0 0 16 16" width="16" xmlns="http://www.w3.org/2000/svg"><g transform="matrix(1.0454545 0 0 1.0648148 -.545455 -8.861111)"><path d="m7.7554356 9.2608697c.3183865.7155283.6283068 1.4513113.9284986 2.2065903.2910958.745342.5911873 1.535054.9004756 2.369837.3001924.834784.6101122 1.724719.9284992 2.668818.318386.944099.654059 1.972148 1.008831 3.08519h-2.2100884c-.1000639-.357763-.2105469-.724738-.3288043-1.102377-.1273548-.37764-.2497792-.75592-.3680367-1.13356h-3.6841034l-.3549595 1.13356c-.1273542.377639-.2399502.744614-.3400139 1.102377h-2.2792115c.354772-1.113042.6904461-2.141091 1.008832-3.08519s.6322867-1.834034.9415752-2.668818c.3001929-.834783.6021505-1.624495.9023444-2.369837.3001928-.755279.6042644-1.491062.9135529-2.2065903zm-.9677311 2.3404903c-.05458.149068-.1276126.352416-.2185798.610801-.090965.258385-.1956001.557221-.3138587.895109-.1273542.337888-.2596096.709597-.3960603 1.117052-.1364497.407454-.2785334.834928-.4240825 1.282133h2.688349c-.1455481-.447205-.2857635-.874679-.4222146-1.282133-.1455474-.407455-.2778024-.779164-.3960598-1.117052-.1182587-.337888-.2228923-.636724-.3138587-.895109-.0909658-.258385-.1581487-.461733-.2036346-.610801z" fill="#1a7fd4" stroke-width=".846263"/><path d="m-10.188244 31.164998v1.773913h12.814345v-1.773913z" fill="#e95420" stroke-width="1.191941" transform="matrix(0 -1.02602402797 1.07843142521 0 -20.65279016594 11.95531281606)"/><g fill="#c43ac4" stroke-width="1.010213" transform="matrix(0 .92963558712 -.80118174365 0 24.51642397538 22.70826157619)"><path d="m-2.3426671 15.622451v4.040853l3.03064061-2.020426z"/><path d="m-2.3426671 24.714372v4.040854l3.03064061-2.020427z"/><path d="m-2.3426671 20.168411v4.040855l3.03064061-2.020428z"/></g><g fill="#e95420" stroke-width="1.322876" transform="matrix(.95652178396 0 0 .93913044293 .52173959345 8.32173901112)"><path d="m1 13 1.6914062 3 1.6933594-3h-.2832031l-1.4101563 2.5-1.4101562-2.5zm3.8085938 0 1.6914062 3 1.6914062-3h-.28125l-1.4101562 2.5-1.4101562-2.5zm3.8066406 0 1.6933596 3 1.691406-3h-.28125l-1.410156 2.5-1.4101565-2.5zm4.3847656 1.5v.5h2v-.5z" fill="#000" opacity=".2"/><path d="m13 1v.5h2v-.5zm-12 12 .28125.5h2.8203125l.2832031-.5zm3.8085938 0 .28125.5h2.8203124l.28125-.5zm3.8066406 0 .2832031.5h2.8203125l.28125-.5z" fill="#fff" opacity=".3"/></g><g stroke-width=".846263"><path d="m6.7877045 11.131794c.045486.149068.1126688.352417.2036346.610802.090966.258385.1956.557221.3138587.895109.1182574.337888.2505124.709596.3960598 1.117051.1364511.407454.2766665.834929.4222146 1.282134h-.1550611c-.0898865-.274194-.1806891-.554378-.2671535-.812568-.1455474-.407455-.2778024-.779164-.3960598-1.117052-.1182587-.337888-.2228923-.636724-.3138587-.895109-.0909658-.258385-.1581487-.461733-.2036346-.610801-.0545803.149068-.1276126.352416-.2185798.610801-.0909671.258385-.1956001.557221-.3138587.895109-.1273542.337888-.2596096.709597-.3960603 1.117052-.0864848.258252-.1785625.538304-.2690217.812568h-.1550608c.1455491-.447205.2876328-.87468.4240825-1.282134.1364507-.407455.2687061-.779163.3960603-1.117051.1182586-.337888.2228887-.636724.3138587-.895109.090966-.258385.1639995-.461734.2185798-.610802zm1.8271061 5.754009c.1182575.37764.240682.75592.3680367 1.13356.1182575.377638.2287404.744615.3288043 1.102377h2.0568954c.05311.165437.09921.300197.153193.469565h-2.2100884c-.1000639-.357763-.2105469-.724738-.3288043-1.102377-.1273548-.37764-.2497792-.75592-.3680367-1.13356h-3.6841034l-.3549595 1.13356c-.1273542.377639-.2399502.744614-.3400139 1.102377h-2.2792115c.0539851-.169368.1000866-.304128.1531927-.469565h2.1260188c.1000646-.357762.2126597-.724739.3400139-1.102377l.3549595-1.13356z" opacity=".2"/><path d="m7.7554356 9.2608697c.3183865.7155283.6283068 1.4513113.9284986 2.2065903.2910958.745342.5911873 1.535054.9004756 2.369837.3001924.834784.6101122 1.724719.9284992 2.668818.318386.944099.654059 1.972148 1.008831 3.08519h-.153193c-.295895-.921764-.5857-1.815187-.855638-2.615624-.318387-.9441-.6283068-1.834035-.9284992-2.668818-.3092884-.834784-.6093799-1.624495-.9004756-2.369837-.3001918-.75528-.6101121-1.491062-.9284986-2.206591h-2.0326088c-.3092885.715529-.6133601 1.451311-.9135529 2.206591-.3001939.745342-.6021506 1.535053-.9023444 2.369837-.3092885.834783-.6231893 1.724718-.9415752 2.668818-.2699381.800437-.5597441 1.69386-.8556393 2.615624h-.1531927c.354772-1.113042.6904461-2.141091 1.008832-3.08519.318385-.944099.6322877-1.834034.9415752-2.668818.3001929-.834783.6021505-1.624495.9023444-2.369837.3001928-.755279.6042644-1.491062.9135529-2.2065903zm.2129755 6.2455853c.051965.158516.1017419.305739.1550611.469565h-2.688349c.053297-.163758.1027993-.311113.1550608-.469565z" fill="#fff" opacity=".3"/></g></g></svg>

<?xml version="1.0" encoding="UTF-8" standalone="no"?>
<svg
   xmlns:dc="http://purl.org/dc/elements/1.1/"
   xmlns:cc="http://creativecommons.org/ns#"
   xmlns:rdf="http://www.w3.org/1999/02/22-rdf-syntax-ns#"
   xmlns:svg="http://www.w3.org/2000/svg"
   xmlns="http://www.w3.org/2000/svg"
   xmlns:sodipodi="http://sodipodi.sourceforge.net/DTD/sodipodi-0.dtd"
   xmlns:inkscape="http://www.inkscape.org/namespaces/inkscape"
   viewBox="0 0 16 16"
   version="1.1"
   id="svg26"
   sodipodi:docname="2.svg"
   inkscape:version="0.92.4 (5da689c313, 2019-01-14)"
   width="16"
   height="16">
  <metadata
     id="metadata32">
    <rdf:RDF>
      <cc:Work
         rdf:about="">
        <dc:format>image/svg+xml</dc:format>
        <dc:type
           rdf:resource="http://purl.org/dc/dcmitype/StillImage" />
        <dc:title></dc:title>
      </cc:Work>
    </rdf:RDF>
  </metadata>
  <defs
     id="defs30" />
  <sodipodi:namedview
     pagecolor="#ffffff"
     bordercolor="#666666"
     borderopacity="1"
     objecttolerance="10"
     gridtolerance="10"
     guidetolerance="10"
     inkscape:pageopacity="0"
     inkscape:pageshadow="2"
     inkscape:window-width="1920"
     inkscape:window-height="1016"
     id="namedview28"
     showgrid="true"
     inkscape:zoom="43.560137"
     inkscape:cx="12"
     inkscape:cy="6.7224349"
     inkscape:window-x="0"
     inkscape:window-y="27"
     inkscape:window-maximized="1"
     inkscape:current-layer="g868">
    <inkscape:grid
       type="xygrid"
       id="grid820" />
  </sodipodi:namedview>
  <g
     transform="matrix(1.0454545,0,0,1.0648148,-0.545455,-8.861111)"
     id="g24">
    <path
       style="fill:#1a7fd4;stroke-width:0.84626257"
       d="m 7.7554356,9.2608697 c 0.3183865,0.7155283 0.6283068,1.4513113 0.9284986,2.2065903 0.2910958,0.745342 0.5911873,1.535054 0.9004756,2.369837 0.3001924,0.834784 0.6101122,1.724719 0.9284992,2.668818 0.318386,0.944099 0.654059,1.972148 1.008831,3.08519 H 9.3116516 C 9.2115877,19.233542 9.1011047,18.866567 8.9828473,18.488928 8.8554925,18.111288 8.7330681,17.733008 8.6148106,17.355368 H 4.9307072 l -0.3549595,1.13356 C 4.4483935,18.866567 4.3357975,19.233542 4.2357338,19.591305 H 1.9565223 c 0.354772,-1.113042 0.6904461,-2.141091 1.008832,-3.08519 C 3.2837402,15.562016 3.597641,14.672081 3.9069295,13.837297 4.2071224,13.002514 4.50908,12.212802 4.8092739,11.46746 5.1094667,10.712181 5.4135383,9.976398 5.7228268,9.2608697 Z M 6.7877045,11.60136 C 6.7331245,11.750428 6.6600919,11.953776 6.5691247,12.212161 6.4781597,12.470546 6.3735246,12.769382 6.255266,13.10727 6.1279118,13.445158 5.9956564,13.816867 5.8592057,14.224322 5.722756,14.631776 5.5806723,15.05925 5.4351232,15.506455 h 2.688349 C 7.9779241,15.05925 7.8377087,14.631776 7.7012576,14.224322 7.5557102,13.816867 7.4234552,13.445158 7.3051978,13.10727 7.1869391,12.769382 7.0823055,12.470546 6.9913391,12.212161 6.9003733,11.953776 6.8331904,11.750428 6.7877045,11.60136 Z"
       id="path2"
       inkscape:connector-curvature="0"
       sodipodi:nodetypes="cccsccccccccscccccscccccccc" />
    <g
       transform="matrix(1.0450245,0,0,1.0588235,14.150618,-13.72526)"
       id="g22">
      <g
         transform="matrix(0,-0.96902272,1.0319676,0,-33.303916,24.253875)"
         id="g12"
         style="fill:#e95420">
        <path
           d="m -10.188244,31.164998 v 1.773913 H 2.626101 v -1.773913 z"
           id="path4"
           inkscape:connector-curvature="0"
           style="stroke-width:1.19194055" />
      </g>
      <g
         id="g20"
         style="fill:#c43ac4;stroke-width:1.01021302"
         transform="matrix(0,0.87798919,-0.76666312,0,9.9191985,34.409438)">
        <path
           d="m -2.3426671,15.622451 v 4.040853 l 3.03064061,-2.020426 z"
           id="path14"
           inkscape:connector-curvature="0" />
        <path
           d="m -2.3426671,24.714372 v 4.040854 l 3.03064061,-2.020427 z"
           id="path16"
           inkscape:connector-curvature="0" />
        <path
           d="m -2.3426671,20.168411 v 4.040855 l 3.03064061,-2.020428 z"
           id="path18"
           inkscape:connector-curvature="0" />
      </g>
      <g
         style="fill:#e95420"
         id="g868"
         transform="matrix(0,-0.96902272,1.0319676,0,-33.303916,24.253875)">
        <path
           style="stroke-width:1.32287633;fill:#000000;fill-opacity:1;opacity:0.2"
           d="M 1 13 L 2.6914062 16 L 4.3847656 13 L 4.1015625 13 L 2.6914062 15.5 L 1.28125 13 L 1 13 z M 4.8085938 13 L 6.5 16 L 8.1914062 13 L 7.9101562 13 L 6.5 15.5 L 5.0898438 13 L 4.8085938 13 z M 8.6152344 13 L 10.308594 16 L 12 13 L 11.71875 13 L 10.308594 15.5 L 8.8984375 13 L 8.6152344 13 z M 13 14.5 L 13 15 L 15 15 L 15 14.5 L 13 14.5 z "
           transform="matrix(0,0.88695652,-0.91531038,0,3.5414119,19.634563)"
           id="path866" />
        <path
           style="stroke-width:1.32287633;fill:#ffffff;fill-opacity:1;opacity:0.3"
           d="M 13 1 L 13 1.5 L 15 1.5 L 15 1 L 13 1 z M 1 13 L 1.28125 13.5 L 4.1015625 13.5 L 4.3847656 13 L 1 13 z M 4.8085938 13 L 5.0898438 13.5 L 7.9101562 13.5 L 8.1914062 13 L 4.8085938 13 z M 8.6152344 13 L 8.8984375 13.5 L 11.71875 13.5 L 12 13 L 8.6152344 13 z "
           transform="matrix(0,0.88695652,-0.91531038,0,3.5414119,19.634563)"
           id="path881" />
      </g>
      <g
         transform="matrix(0,0.87798919,-0.76666312,0,9.9191985,34.409438)"
         style="fill:#c43ac4;stroke-width:1.01021302"
         id="g876" />
    </g>
    <g
       id="g834"
       transform="matrix(1.0450245,0,0,1.0588235,14.150618,-13.72526)">
      <g
         style="fill:#e95420"
         id="g824"
         transform="translate(-1.938128,1.187604)" />
      <g
         transform="matrix(0.90605635,0,0,0.74291398,0.06463023,10.102986)"
         style="fill:#c43ac4;stroke-width:1.01021302"
         id="g832" />
    </g>
    <path
       style="opacity:0.2;fill:#000000;fill-opacity:1;stroke-width:0.84626257"
       d="m 6.7877045,11.131794 c 0.045486,0.149068 0.1126688,0.352417 0.2036346,0.610802 0.090966,0.258385 0.1956,0.557221 0.3138587,0.895109 0.1182574,0.337888 0.2505124,0.709596 0.3960598,1.117051 0.1364511,0.407454 0.2766665,0.834929 0.4222146,1.282134 H 7.9684111 C 7.8785246,14.762696 7.787722,14.482512 7.7012576,14.224322 7.5557102,13.816867 7.4234552,13.445158 7.3051978,13.10727 7.1869391,12.769382 7.0823055,12.470546 6.9913391,12.212161 6.9003733,11.953776 6.8331904,11.750428 6.7877045,11.60136 6.7331242,11.750428 6.6600919,11.953776 6.5691247,12.212161 6.4781576,12.470546 6.3735246,12.769382 6.255266,13.10727 6.1279118,13.445158 5.9956564,13.816867 5.8592057,14.224322 5.7727209,14.482574 5.6806432,14.762626 5.590184,15.03689 H 5.4351232 C 5.5806723,14.589685 5.722756,14.16221 5.8592057,13.754756 5.9956564,13.347301 6.1279118,12.975593 6.255266,12.637705 6.3735246,12.299817 6.4781547,12.000981 6.5691247,11.742596 6.6600907,11.484211 6.7331242,11.280862 6.7877045,11.131794 Z m 1.8271061,5.754009 c 0.1182575,0.37764 0.240682,0.75592 0.3680367,1.13356 0.1182575,0.377638 0.2287404,0.744615 0.3288043,1.102377 h 2.0568954 c 0.05311,0.165437 0.09921,0.300197 0.153193,0.469565 H 9.3116516 C 9.2115877,19.233542 9.1011047,18.866567 8.9828473,18.488928 8.8554925,18.111288 8.7330681,17.733008 8.6148106,17.355368 H 4.9307072 l -0.3549595,1.13356 C 4.4483935,18.866567 4.3357975,19.233542 4.2357338,19.591305 H 1.9565223 C 2.0105074,19.421937 2.0566089,19.287177 2.109715,19.12174 h 2.1260188 c 0.1000646,-0.357762 0.2126597,-0.724739 0.3400139,-1.102377 l 0.3549595,-1.13356 z"
       id="path837"
       inkscape:connector-curvature="0"
       sodipodi:nodetypes="csccccccccscsccccccccccccccccccccccc" />
    <path
       style="opacity:0.3;fill:#ffffff;fill-opacity:1;stroke-width:0.84626257"
       d="m 7.7554356,9.2608697 c 0.3183865,0.7155283 0.6283068,1.4513113 0.9284986,2.2065903 0.2910958,0.745342 0.5911873,1.535054 0.9004756,2.369837 0.3001924,0.834784 0.6101122,1.724719 0.9284992,2.668818 0.318386,0.944099 0.654059,1.972148 1.008831,3.08519 H 11.368547 C 11.072652,18.669541 10.782847,17.776118 10.512909,16.975681 10.194522,16.031581 9.8846022,15.141646 9.5844098,14.306863 9.2751214,13.472079 8.9750299,12.682368 8.6839342,11.937026 8.3837424,11.181746 8.0738221,10.445964 7.7554356,9.730435 H 5.7228268 C 5.4135383,10.445964 5.1094667,11.181746 4.8092739,11.937026 4.50908,12.682368 4.2071233,13.472079 3.9069295,14.306863 3.597641,15.141646 3.2837402,16.031581 2.9653543,16.975681 2.6954162,17.776118 2.4056102,18.669541 2.109715,19.591305 H 1.9565223 c 0.354772,-1.113042 0.6904461,-2.141091 1.008832,-3.08519 C 3.2837393,15.562016 3.597642,14.672081 3.9069295,13.837297 4.2071224,13.002514 4.50908,12.212802 4.8092739,11.46746 5.1094667,10.712181 5.4135383,9.976398 5.7228268,9.2608697 Z m 0.2129755,6.2455853 c 0.051965,0.158516 0.1017419,0.305739 0.1550611,0.469565 h -2.688349 c 0.053297,-0.163758 0.1027993,-0.311113 0.1550608,-0.469565 z"
       id="path841"
       inkscape:connector-curvature="0"
       sodipodi:nodetypes="cccsccsccccccsccsccccccccc" />
  </g>
</svg>
